public/img/Projects/bombologo.svg

<svg width="257" height="60" viewBox="0 0 257 60" fill="none" xmlns="http://www.w3.org/2000/svg">
<path d="M46.1312 37.4478C46.1312 43.5577 42.463 48.4468 34.0153 48.4468H0V11.2451H32.4221C40.8698 11.2451 43.4759 15.072 43.4759 20.7057C43.4759 23.0982 42.359 25.54 40.5523 27.6697C43.7934 30.0075 46.1312 33.4073 46.1312 37.4478ZM13.8185 24.3191H26.575C27.9547 24.3191 29.6573 24.3191 29.6573 22.2989C29.6573 20.2786 27.9547 20.2786 26.575 20.2786H13.8185V24.3191ZM32.3126 36.3857C32.3126 34.4202 30.6099 34.4202 29.2303 34.4202H13.8185V38.3512H29.2303C30.6099 38.3512 32.3126 38.3511 32.3126 36.3857Z" fill="white"/>
<path d="M45.9365 19.3704C45.9365 6.45522 52.9498 0.290527 69.3196 0.290527C85.6895 0.290527 92.7028 6.50997 92.7028 19.3704C92.7028 32.2309 85.6347 38.5543 69.3196 38.5543C53.0045 38.5543 45.9365 32.3349 45.9365 19.3704ZM78.8897 19.3704C78.8897 15.4887 77.51 11.9848 69.3251 11.9848C61.1402 11.9848 59.7605 15.4395 59.7605 19.3704C59.7605 23.3014 61.1949 26.8655 69.3251 26.8655C77.4553 26.8655 78.8897 23.3068 78.8897 19.3704Z" fill="white"/>
<path d="M151.468 48.4468H137.65V30.7466L127.5 48.4468H118.466L108.316 30.7466V48.4468H94.4971V11.2451H111.502L122.983 32.504L134.464 11.2451H151.468V48.4468Z" fill="white"/>
<path d="M199.723 37.4478C199.723 43.5577 196.055 48.4468 187.607 48.4468H153.592V11.2451H186.014C194.462 11.2451 197.068 15.072 197.068 20.7057C197.068 23.0982 195.951 25.54 194.144 27.6697C197.385 30.0075 199.723 33.4073 199.723 37.4478ZM167.41 24.3191H180.167C181.546 24.3191 183.249 24.3191 183.249 22.2989C183.249 20.2786 181.546 20.2786 180.167 20.2786H167.41V24.3191ZM185.904 36.3857C185.904 34.4202 184.202 34.4202 182.822 34.4202H167.41V38.3512H182.822C184.202 38.3512 185.904 38.3511 185.904 36.3857Z" fill="white"/>
<path d="M199.722 29.7952C199.722 16.88 206.735 10.7153 223.105 10.7153C239.475 10.7153 246.488 16.9348 246.488 29.7952C246.488 42.6557 239.42 48.9791 223.105 48.9791C206.79 48.9791 199.722 42.7597 199.722 29.7952ZM232.675 29.7952C232.675 25.9135 231.295 22.4096 223.11 22.4096C214.925 22.4096 213.546 25.8643 213.546 29.7952C213.546 33.7262 214.98 37.2903 223.11 37.2903C231.24 37.2903 232.675 33.7316 232.675 29.7952Z" fill="white"/>
<path d="M103.762 52.3574C106.214 52.3574 107.495 53.217 107.594 55.1551H105.262C105.174 54.5748 104.725 54.2901 103.762 54.2901C102.409 54.2901 102.185 54.8594 102.185 55.5109C102.185 56.1625 102.42 56.7483 103.762 56.7483C104.725 56.7483 105.174 56.4526 105.262 55.8613H107.594C107.495 57.8049 106.225 58.6754 103.762 58.6754C101.062 58.6754 99.9072 57.6516 99.9072 55.5109C99.9072 53.3703 101.062 52.3629 103.762 52.3629V52.3574Z" fill="white"/>
<path d="M114.164 56.6486V58.5758H107.852V52.4385H110.129V56.6432H114.159L114.164 56.6486Z" fill="white"/>
<path d="M118.29 58.6702C115.591 58.6702 114.436 57.6464 114.436 55.5057V52.4453H116.713V55.5057C116.713 56.1627 116.948 56.7431 118.29 56.7431C119.631 56.7431 119.867 56.1572 119.867 55.5057V52.4453H122.144V55.5057C122.144 57.6355 120.978 58.6702 118.29 58.6702Z" fill="white"/>
<path d="M130.099 56.7636C130.099 57.771 129.497 58.5758 128.101 58.5758H122.489V52.4385H127.833C129.229 52.4385 129.656 53.0681 129.656 53.9988C129.656 54.393 129.47 54.7981 129.174 55.1485C129.711 55.5318 130.094 56.0957 130.094 56.7636H130.099ZM124.772 54.6011H126.875C127.105 54.6011 127.384 54.6011 127.384 54.2671C127.384 53.9331 127.105 53.9331 126.875 53.9331H124.772V54.6011ZM127.822 56.5884C127.822 56.2654 127.543 56.2654 127.313 56.2654H124.772V56.9114H127.313C127.543 56.9114 127.822 56.9114 127.822 56.5884Z" fill="white"/>
<path d="M137.972 56.7646C137.972 57.772 137.37 58.5768 135.974 58.5768H130.362V52.4395H135.711C137.107 52.4395 137.534 53.069 137.534 53.9998C137.534 54.394 137.348 54.7991 137.053 55.1495C137.589 55.5328 137.972 56.0967 137.972 56.7646ZM132.645 54.602H134.748C134.978 54.602 135.257 54.602 135.257 54.2681C135.257 53.9341 134.978 53.9341 134.748 53.9341H132.645V54.602ZM135.695 56.5894C135.695 56.2664 135.416 56.2664 135.186 56.2664H132.645V56.9124H135.186C135.416 56.9124 135.695 56.9124 135.695 56.5894Z" fill="white"/>
<path d="M140.518 58.5826H138.24V52.4453H140.518V58.5826Z" fill="white"/>
<path d="M148.771 52.4453V58.5826H145.793L143.149 54.9637V58.5826H140.871V52.4453H143.849L146.494 56.0642V52.4453H148.771Z" fill="white"/>
<path d="M152.66 55.2427H156.64V58.5823H155.326L155.162 57.6954C154.642 58.2976 153.837 58.67 152.55 58.67C150.289 58.67 148.959 57.6461 148.959 55.5055C148.959 53.3648 150.289 52.3574 152.813 52.3574C155.337 52.3574 156.547 53.217 156.646 54.8923H154.313C154.226 54.5747 153.777 54.2901 152.813 54.2901C151.461 54.2901 151.237 54.8595 151.237 55.5931C151.237 56.3267 151.472 57.0056 152.813 57.0056C153.689 57.0056 154.226 56.8851 154.313 56.469H152.665V55.2427H152.66Z" fill="white"/>
<path d="M168.43 58.5812C167.888 58.3294 167.384 58.0831 166.913 57.8531C166.054 58.4061 165.014 58.6689 163.678 58.6689C161.488 58.6689 160.409 58.0283 160.409 56.8895C160.409 55.7508 161.444 55.3456 162.364 55.1649C161.942 54.7379 161.751 54.3218 161.751 53.851C161.751 52.8436 162.67 52.3618 164.417 52.3618C165.89 52.3618 167.045 52.8436 167.045 53.7634C167.045 54.4532 166.355 54.9022 165.178 55.2799C165.484 55.4387 165.862 55.6303 166.311 55.8384C166.519 55.603 166.722 55.3292 166.913 55.0336L168.791 55.7508C168.6 56.0902 168.397 56.3968 168.178 56.6815C168.528 56.8293 168.906 56.9881 169.311 57.1633L168.435 58.5812H168.43ZM164.811 56.791C164.154 56.4406 163.612 56.1231 163.179 55.8274C162.741 55.9862 162.512 56.145 162.512 56.3859C162.512 56.6925 162.845 56.9114 163.836 56.9114C164.198 56.9114 164.521 56.8676 164.811 56.791ZM163.853 54.1466C163.853 54.3054 163.957 54.4861 164.302 54.7434C164.723 54.5956 164.942 54.4094 164.942 54.1466C164.942 53.9003 164.795 53.7634 164.417 53.7634C164.039 53.7634 163.858 53.9057 163.858 54.1466H163.853Z" fill="white"/>
<path d="M176.937 52.3574C179.39 52.3574 180.671 53.217 180.77 55.1551H178.437C178.35 54.5748 177.901 54.2901 176.937 54.2901C175.585 54.2901 175.361 54.8594 175.361 55.5109C175.361 56.1625 175.596 56.7483 176.937 56.7483C177.901 56.7483 178.35 56.4526 178.437 55.8613H180.77C180.671 57.8049 179.401 58.6754 176.937 58.6754C174.238 58.6754 173.083 57.6516 173.083 55.5109C173.083 53.3703 174.238 52.3629 176.937 52.3629V52.3574Z" fill="white"/>
<path d="M180.946 55.5055C180.946 53.3757 182.102 52.3574 184.801 52.3574C187.5 52.3574 188.655 53.3812 188.655 55.5055C188.655 57.6297 187.489 58.67 184.801 58.67C182.112 58.67 180.946 57.6461 180.946 55.5055ZM186.383 55.5055C186.383 54.8649 186.153 54.2846 184.806 54.2846C183.459 54.2846 183.229 54.854 183.229 55.5055C183.229 56.157 183.465 56.7428 184.806 56.7428C186.147 56.7428 186.383 56.157 186.383 55.5055Z" fill="white"/>
<path d="M198.319 58.5826H196.041V55.6645L194.366 58.5826H192.877L191.201 55.6645V58.5826H188.924V52.4453H191.727L193.621 55.9492L195.516 52.4453H198.319V58.5826Z" fill="white"/>
<path d="M208.071 58.5826H205.793V55.6645L204.118 58.5826H202.629L200.953 55.6645V58.5826H198.676V52.4453H201.479L203.373 55.9492L205.268 52.4453H208.071V58.5826Z" fill="white"/>
<path d="M212.278 58.6702C209.579 58.6702 208.424 57.6464 208.424 55.5057V52.4453H210.701V55.5057C210.701 56.1627 210.937 56.7431 212.278 56.7431C213.619 56.7431 213.855 56.1572 213.855 55.5057V52.4453H216.132V55.5057C216.132 57.6355 214.966 58.6702 212.278 58.6702Z" fill="white"/>
<path d="M224.392 52.4453V58.5826H221.414L218.77 54.9637V58.5826H216.492V52.4453H219.47L222.115 56.0642V52.4453H224.392Z" fill="white"/>
<path d="M227.022 58.5826H224.744V52.4453H227.022V58.5826Z" fill="white"/>
<path d="M234.826 54.3725H232.198V58.5772H229.921V54.3725H227.293V52.4453H234.832V54.3725H234.826Z" fill="white"/>
<path d="M235.008 52.4453H237.636L239.267 54.7228L240.899 52.4453H243.527L240.406 56.5624V58.5772H238.129V56.5624L235.008 52.4453Z" fill="white"/>
<path d="M59.7551 59.5825C59.7551 59.5552 59.7551 59.5223 59.7551 59.4949C59.7551 55.564 61.1347 52.1094 69.3196 52.1094C77.5045 52.1094 78.8842 55.6187 78.8842 59.4949C78.8842 59.5223 78.8842 59.5552 78.8842 59.5825H92.7028C92.7028 59.5552 92.7028 59.5223 92.7028 59.4949C92.7028 46.6345 85.6347 40.415 69.3196 40.415C53.0045 40.415 45.9365 46.5798 45.9365 59.4949C45.9365 59.5223 45.9365 59.5552 45.9365 59.5825H59.7551Z" fill="white"/>
<path d="M249.616 4.67296V5.69785H248.381V9.30469H247.093V5.69785H245.871V4.67296H249.616ZM255.5 4.67296V9.30469H254.212V6.74902L253.338 9.30469H252.261L251.38 6.72931V9.30469H250.093V4.67296H251.65L252.813 7.68194L253.949 4.67296H255.5Z" fill="white"/>
</svg>

<svg width="257" height="60" fill="none" xmlns="http://www.w3.org/2000/svg"><path d="M46.131 37.448c0 6.11-3.668 10.999-12.116 10.999H0V11.245h32.422c8.448 0 11.054 3.827 11.054 9.46 0 2.393-1.117 4.835-2.924 6.965 3.241 2.337 5.58 5.737 5.58 9.778ZM13.818 24.319h12.757c1.38 0 3.082 0 3.082-2.02s-1.702-2.02-3.082-2.02H13.819v4.04Zm18.495 12.067c0-1.966-1.703-1.966-3.083-1.966H13.818v3.931H29.23c1.38 0 3.083 0 3.083-1.965ZM45.937 19.37C45.937 6.455 52.95.29 69.32.29c16.37 0 23.383 6.22 23.383 19.08S85.635 38.554 69.32 38.554c-16.315 0-23.383-6.22-23.383-19.184Zm32.953 0c0-3.881-1.38-7.385-9.565-7.385-8.185 0-9.565 3.455-9.565 7.385 0 3.931 1.435 7.495 9.565 7.495 8.13 0 9.565-3.558 9.565-7.495ZM151.468 48.447H137.65v-17.7l-10.15 17.7h-9.034l-10.15-17.7v17.7H94.497V11.245h17.005l11.481 21.259 11.481-21.259h17.004v37.202ZM199.723 37.448c0 6.11-3.668 10.999-12.116 10.999h-34.015V11.245h32.422c8.448 0 11.054 3.827 11.054 9.46 0 2.393-1.117 4.835-2.924 6.965 3.241 2.337 5.579 5.737 5.579 9.778ZM167.41 24.319h12.757c1.379 0 3.082 0 3.082-2.02s-1.703-2.02-3.082-2.02H167.41v4.04Zm18.494 12.067c0-1.966-1.702-1.966-3.082-1.966H167.41v3.931h15.412c1.38 0 3.082 0 3.082-1.965Z" fill="#fff"/><path d="M199.722 29.795c0-12.915 7.013-19.08 23.383-19.08 16.37 0 23.383 6.22 23.383 19.08S239.42 48.98 223.105 48.98c-16.315 0-23.383-6.22-23.383-19.184Zm32.953 0c0-3.882-1.38-7.385-9.565-7.385-8.185 0-9.564 3.454-9.564 7.385 0 3.931 1.434 7.495 9.564 7.495s9.565-3.558 9.565-7.495ZM103.762 52.357c2.452 0 3.733.86 3.832 2.798h-2.332c-.088-.58-.537-.865-1.5-.865-1.353 0-1.577.57-1.577 1.22 0 .653.235 1.238 1.577 1.238.963 0 1.412-.295 1.5-.887h2.332c-.099 1.944-1.369 2.814-3.832 2.814-2.7 0-3.855-1.023-3.855-3.164 0-2.14 1.155-3.148 3.855-3.148v-.006ZM114.164 56.649v1.927h-6.312v-6.138h2.277v4.205h4.03l.005.006ZM118.29 58.67c-2.699 0-3.854-1.024-3.854-3.164v-3.06h2.277v3.06c0 .657.235 1.237 1.577 1.237 1.341 0 1.577-.586 1.577-1.237v-3.06h2.277v3.06c0 2.13-1.166 3.164-3.854 3.164ZM130.099 56.764c0 1.007-.602 1.812-1.998 1.812h-5.612v-6.138h5.344c1.396 0 1.823.63 1.823 1.56 0 .395-.186.8-.482 1.15.537.384.92.948.92 1.616h.005Zm-5.327-2.163h2.103c.23 0 .509 0 .509-.334s-.279-.334-.509-.334h-2.103v.668Zm3.05 1.987c0-.323-.279-.323-.509-.323h-2.541v.646h2.541c.23 0 .509 0 .509-.323ZM137.972 56.765c0 1.007-.602 1.812-1.998 1.812h-5.612V52.44h5.349c1.396 0 1.823.629 1.823 1.56 0 .394-.186.8-.481 1.15.536.383.919.947.919 1.615Zm-5.327-2.163h2.103c.23 0 .509 0 .509-.334s-.279-.334-.509-.334h-2.103v.668Zm3.05 1.987c0-.323-.279-.323-.509-.323h-2.541v.646h2.541c.23 0 .509 0 .509-.323ZM140.518 58.583h-2.278v-6.138h2.278v6.138ZM148.771 52.445v6.138h-2.978l-2.644-3.62v3.62h-2.278v-6.138h2.978l2.645 3.62v-3.62h2.277ZM152.66 55.243h3.98v3.34h-1.314l-.164-.888c-.52.603-1.325.975-2.612.975-2.261 0-3.591-1.024-3.591-3.165 0-2.14 1.33-3.148 3.854-3.148s3.734.86 3.833 2.535h-2.333c-.087-.317-.536-.602-1.5-.602-1.352 0-1.576.57-1.576 1.303 0 .734.235 1.413 1.576 1.413.876 0 1.413-.12 1.5-.537h-1.648v-1.226h-.005ZM168.43 58.581c-.542-.252-1.046-.498-1.517-.728-.859.553-1.899.816-3.235.816-2.19 0-3.269-.64-3.269-1.78 0-1.138 1.035-1.543 1.955-1.724-.422-.427-.613-.843-.613-1.314 0-1.007.919-1.49 2.666-1.49 1.473 0 2.628.483 2.628 1.402 0 .69-.69 1.14-1.867 1.517.306.159.684.35 1.133.558.208-.235.411-.509.602-.804l1.878.717a7.75 7.75 0 0 1-.613.93c.35.148.728.307 1.133.482l-.876 1.418h-.005Zm-3.619-1.79a17.804 17.804 0 0 1-1.632-.964c-.438.16-.667.318-.667.559 0 .306.333.525 1.324.525a3.8 3.8 0 0 0 .975-.12Zm-.958-2.644c0 .158.104.34.449.596.421-.147.64-.334.64-.596 0-.247-.147-.384-.525-.384s-.559.143-.559.384h-.005ZM176.937 52.357c2.453 0 3.734.86 3.833 2.798h-2.333c-.087-.58-.536-.865-1.5-.865-1.352 0-1.576.57-1.576 1.22 0 .653.235 1.238 1.576 1.238.964 0 1.413-.295 1.5-.887h2.333c-.099 1.944-1.369 2.814-3.833 2.814-2.699 0-3.854-1.023-3.854-3.164 0-2.14 1.155-3.148 3.854-3.148v-.006ZM180.946 55.505c0-2.13 1.156-3.148 3.855-3.148s3.854 1.024 3.854 3.148c0 2.125-1.166 3.165-3.854 3.165-2.689 0-3.855-1.024-3.855-3.165Zm5.437 0c0-.64-.23-1.22-1.577-1.22s-1.577.569-1.577 1.22c0 .652.236 1.238 1.577 1.238s1.577-.586 1.577-1.238ZM198.319 58.583h-2.278v-2.919l-1.675 2.919h-1.489l-1.676-2.919v2.919h-2.277v-6.138h2.803l1.894 3.504 1.895-3.504h2.803v6.138ZM208.071 58.583h-2.278v-2.919l-1.675 2.919h-1.489l-1.676-2.919v2.919h-2.277v-6.138h2.803l1.894 3.504 1.895-3.504h2.803v6.138ZM212.278 58.67c-2.699 0-3.854-1.024-3.854-3.164v-3.06h2.277v3.06c0 .657.236 1.237 1.577 1.237s1.577-.586 1.577-1.237v-3.06h2.277v3.06c0 2.13-1.166 3.164-3.854 3.164ZM224.392 52.445v6.138h-2.978l-2.644-3.62v3.62h-2.278v-6.138h2.978l2.645 3.62v-3.62h2.277ZM227.022 58.583h-2.278v-6.138h2.278v6.138ZM234.826 54.373h-2.628v4.204h-2.277v-4.204h-2.628v-1.928h7.539v1.928h-.006ZM235.008 52.445h2.628l1.631 2.278 1.632-2.278h2.628l-3.121 4.117v2.015h-2.277v-2.015l-3.121-4.117ZM59.755 59.583v-.088c0-3.931 1.38-7.386 9.565-7.386 8.184 0 9.564 3.51 9.564 7.386v.088h13.819v-.088c0-12.86-7.068-19.08-23.383-19.08-16.315 0-23.383 6.165-23.383 19.08v.088h13.818ZM249.616 4.673v1.025h-1.235v3.607h-1.288V5.698h-1.222V4.673h3.745Zm5.884 0v4.632h-1.288V6.749l-.874 2.556h-1.077l-.881-2.576v2.576h-1.287V4.673h1.557l1.163 3.009 1.136-3.009h1.551Z" fill="#fff"/></svg>
